X:3138
T:Johnson's Book,From. CJF.097
O:england
M:6/8
L:1/8
Q:60
C:"From J. Johnson's Book"
S: C.J.Fox MS, 1829/33, Beverley,E.Yorks.
R:Air
A:East Yorkshire
B:Kidson Coll.Mitchell Lib.M1805
N:Final note of 1st section is G not G2 in MS. There is no repeat sign in
N:the last bar. - PJH.
K:G
G|GBdd2G|Gcee2d|dcB ABc|c3B2G|GBd dcB|\
c/B/c/d/e/f/ gfe|dgBdcA|G3G2:|:d|dc'ba2g|
fa/g/f/e/ d/e/d/c/B/c/|dc'ba2g|fa/g/f/e/ d/e/d/c/B/c/|\
GBdd2G|c/B/c/d/e/f/ gfe|dgb agf|a3g2||


